X:1
T:Title
%%score { ( 1 4 ) | ( 2 3 ) }
L:1/8
M:4/4
K:G
V:1 treble nm="Grand Piano"
V:4 treble 
V:2 bass 
V:3 bass 
V:1
 z4 z2[Q:1/4=106] [DB]c | B2 A2 A2 BA | [G,B,G]4 [G,B,D]2 .[G,DG]2 | %3
 [G,CE]2 [A,DF]2 [G,DG]2 [DB]2 | A6 Bc | B2 A2 A2 BA | [B,G]4 [B,D]2 [B,D]2 | %7
 [CE]2 [Ec]2 [DB]2 [CA]2 |[M:3/4] [G,B,G]6 |[M:1/4] z2 |[M:4/4] A6 z2 | B6 z2 | %12
 d2 ^c2 [GB]2 [Gc]2 | d6 z2 | B2 B2 B2 AB | [Ec]4 [B,EB]2 [CEA]2 | [B,DG]2 [B,DG]2 [A,DF]2 [CDA]2 | %17
[M:3/4] [B,DG]6 |] %18
V:2
 z4 z2 z E | [D,F,D]2 [D,F,C]2 [D,F,C]2 DC | G,,4 G,,2 z F | C,2 C,2 B,,2 [G,,G,]2 | [D,F,D]6 DE | %5
 [D,F,D]2 [D,F,C]2 [D,F,C]2 DC | [G,,G,]4 [G,,G,]2 [G,,G,]2 | [C,G,]2 [C,G,]2 [D,G,]2 [D,F,]2 | %8
[M:3/4] G,,6 |[M:1/4][K:treble] B2 |[M:4/4][K:bass] [D,D]2 [D,D]2 [D,D]2 z2 | %11
 [G,DG]2 [G,D]2 [G,D]2 [G,B,G]2 | [A,G]2 [A,G]2[K:bass] [A,,A,]2 [A,,A,]2 | z2 E2 D2 D,2 | %14
 [G,DG]2 [G,DG]2 [G,DG]2 [G,=F]2 | G,2 A,2 C,2 C,2 | D,2 D,2 D,2 D,2 |[M:3/4] G,,6 |] %18
V:3
 z4 z2 G,2 | z4 z2 [D,F,]2 | z4 z2 B,,2 | x8 | z4 z2 G,2 | z4 z2 [D,F,]2 | x8 | x8 |[M:3/4] x6 | %9
[M:1/4][K:treble] x2 |[M:4/4][K:bass] x8 | x8 | x4[K:bass] x4 | [D,A,]6 z2 | x8 | C,4 z4 | x8 | %17
[M:3/4] x6 |] %18
V:4
 x8 | x8 | x8 | x8 | x8 | x8 | x8 | x8 |[M:3/4] x6 |[M:1/4] x2 |[M:4/4] F2 F2 F2 c2 | z2 G2 G2 d2 | %12
 x8 | F2 z2 z2 [DFc]2 | x8 | x8 | x8 |[M:3/4] x6 |] %18

